X:1
T:Devil Among the Tailors [1]
M:C|
L:1/8
S:White's Unique Collection (1896), No. 75, pg. 14
Z:AK/Fiddler's Companion
K:A
|: e | {g}a2.e.a {g}a2.e.a | {g}a2.e.a (fe).d.c| dfBf dfBf | dfBa gabg |
{g}a2.e.a {g}a2.e.a | {g}a2.e.a (fe).d.c | .f(dc)"tr"B .e(cB)."tr"A  | E2"tr"G2 [C2A2]z ||
|: e | ceAe ceAe | ceAa fedc| dfBf dfBf | dfBa gabg | ceAe ceAe | ceAa (fe)(dc) |
.f(dc)"tr".B .e(cB)"tr".A | E2"tr"G2 [C2A2] z ||

